!!!SOCIAL_FUNCTION:	cheyenne war song
!!!PDT:	1936
!!!OTL: No_6_If_You_Turned_Back.krn
!!!REG: Oklahoma and Montana
!!!LANG: Tone
!!!LING_GROUP: Algonquin
**kern
*staff1
=1-
*clefG2
*k[f#c#]
*M2/4
[4a/
8.a/L]
16b/Jk
=2
4a/
(8a/L
8f#/J)
=3
8f#/L
8a/J
8a/L
8a/J
=4
16b/LK
8.a/J
8a/L
16f#/Jk
16r
=5
8f#/L
8f#/J
16e/LK
8.e/J
=6
*M5/8
2d/
8r
=7
*M2/4
16e/LL
16d/J
8d/J
8.d/L
16e/Jk
=8
8.d/L
16A/Jk
8d/L
8d/J
=9
8A/L
8A/J
8A/L
[8A/J
=10
2A/]
=11
4A/
4r
=12
8f#/L
8a/J
8a/L
16a/L
16a/JJ
=13
16b/LK
8.a/J
8a/L
16f#/Jk
16r
=14
8f#/L
8a/J
16.a/LL
32a/K
16a/
16a/JJ
=15
16b/LK
8.a/J
8a/L
8f#/J
=16
*M3/4
8f#/L
8f#/J
16e/LK
8.e/J
8.d/L
16d/Jk
=17
*M2/4
4.d/
8r
=18
16f#/LL
16d/
16d/
16d/JJ
8d/L
8d/J
=19
*M3/4
4d/
8d/L
8A/J
8d/
24f#/LL
24e/
24d/JJ
=20
*M2/4
4A/
8A/L
8A/J
=21
2A/
=22
4A/
4r
==
*-
